svg/fluentui-system-icons/ic_fluent_camera_20_filled.svg

<svg width="20" height="20" viewBox="0 0 20 20" fill="none" xmlns="http://www.w3.org/2000/svg">
<path d="M7.00018 10C7.00018 8.34315 8.34333 7 10.0002 7C11.657 7 13.0002 8.34315 13.0002 10C13.0002 11.6569 11.657 13 10.0002 13C8.34333 13 7.00018 11.6569 7.00018 10ZM6.78386 2.82643C7.03849 2.31977 7.55707 2 8.12412 2H11.8883C12.4565 2 12.976 2.32106 13.23 2.8293L13.8149 3.9994H15.5049C16.8856 3.9994 18.0049 5.11869 18.0049 6.4994V14.5C18.0049 15.8807 16.8856 17 15.5049 17H4.50488C3.12417 17 2.00488 15.8807 2.00488 14.5V6.4994C2.00488 5.11868 3.12417 3.9994 4.50488 3.9994H6.19437L6.78386 2.82643ZM10.0002 6C7.79104 6 6.00018 7.79086 6.00018 10C6.00018 12.2091 7.79104 14 10.0002 14C12.2093 14 14.0002 12.2091 14.0002 10C14.0002 7.79086 12.2093 6 10.0002 6Z" fill="#212121"/>
</svg>

<svg xmlns="http://www.w3.org/2000/svg" width="20" height="20"><path d="M7 10a3 3 0 1 1 6 0 3 3 0 0 1-6 0Zm-.216-7.174A1.5 1.5 0 0 1 8.124 2h3.764a1.5 1.5 0 0 1 1.342.83L13.815 4h1.69a2.5 2.5 0 0 1 2.5 2.5v8a2.5 2.5 0 0 1-2.5 2.5h-11a2.5 2.5 0 0 1-2.5-2.5v-8a2.5 2.5 0 0 1 2.5-2.5h1.69l.589-1.174ZM10 6a4 4 0 1 0 0 8 4 4 0 0 0 0-8Z"/></svg>
